**kern	**kern	**dynam
*part1	*part1	*part1
*staff2	*staff1	*
*I"Piano	*	*
*clefF4	*clefG2	*
*k[b-e-a-d-]	*k[b-e-a-d-]	*
=1	=1	=1
*^	*^	*
(8.d-L	4.E-	4.ee-	(8.b-L	>
16e-K	.	.	16ccK	]
8d-	.	.	8b-	.
8B-J)	8E-	8ee-	8gJ)	.
=	=	=	=	=
2c	2A-	2ee-	2a-	.
*v	*v	*	*	*
*	*v	*v	*
=	=	=
(4a-	(8ccL	.
.	8ff	.
4g	8ee-	.
.	8b-J	.
=	=	=
4f	8a-L	.
.	8dd-	.
4e-)	8cc	.
.	8a-J)	.
=	=	=
*	*^	*
(4D- 4F-X	(8f-XL	4d-	>
.	8dd-	.	.
4E-)	8e-	4d-	]
.	8gJ)	.	.
*	*v	*v	*
=	=	=
4AA-	(8cL 8a-	.
.	8e-	.
4r	8a-	.
.	8b-J)	.
=	=	=
(4a-	(8ccL	.
.	8ff	.
4g	8ee-	.
.	8b-J	.
=	=	=
4f	8a-L	.
.	8dd-	.
4e-)	8cc	.
.	8a-J)	.
=	=	=
*-	*-	*-
!!!system-decoration: {(s1,s2)}
